!!!OTL: AUF AUF IHR BRUEDER UND SEID STARK
!!!ARE: Europa, Mitteleuropa, Deutschland
!!!SCT: F0566
!!!YEM: Copyright 1995, estate of Helmut Schaffrath.
**kern
*ICvox
*Ivox
*M4/4
*k[f#c#]
*D:
{4a
=1
4.dd
8a
8a
8g
8f#
8e
=2
4d
4d
4.d}
{8f#
=3
8e
8a
8cc#
8ee
8ee
8dd
8cc#
8b
=4
2a
4r}
{8a
8g
=5
4f#
4f#
4.f#
8a
=6
8a
8g
8g
8f#
4.g}
{8f#
=7
8f#
8e
4e
4.e
8g
=8
8g
8f#
8f#
8e
4.f#}
{8a
=9
4.dd
8a
8g
8f#
8e
8d
=10
4.a
8r}
{2cc#
=11
4.dd
8b
8a
8g
8f#
8e
=12
4d
2r}
==
!!!AGN: Soldaten - Lied, Abschied
!!!ONB: ESAC (Essen Associative Code) Database: FINK
!!!AMT: simple quadruple
!!!AIN: vox
!!!EED: Helmut Schaffrath
!!!EEV: 1.0
*-
